X: 20322
M: 3/4
L: 1/8
K: C
c4e2 | g4e2 | g2f2d2 | (cBAGAB) | c4 e2 |\
g4e2 | (defgab) | c'2z2 :|
|: {^f}g2 |\


